azure-patterns/svg-social.svg

<svg xmlns="http://www.w3.org/2000/svg" viewBox="0 0 48 48">
                                
                            
    <path d="M4.50881 2.67285H43.4912C46.0274 2.67285 48 4.80371 48 7.32199V32.9891C48 35.6043 45.9335 37.6383 43.4912 37.6383H35.6947V45.0963C35.6947 45.5806 35.225 45.7743 34.8493 45.4837L24.7045 37.6383H4.50881C1.9726 37.6383 0 35.5074 0 32.9891V7.32199C0 4.80371 2.06654 2.67285 4.50881 2.67285Z" fill="#0078D4"></path>
    <path d="M15.9173 31.3492C17.5857 31.3492 18.9382 29.9821 18.9382 28.2957C18.9382 26.6093 17.5857 25.2422 15.9173 25.2422C14.249 25.2422 12.8965 26.6093 12.8965 28.2957C12.8965 29.9821 14.249 31.3492 15.9173 31.3492Z" fill="white"></path>
    <path d="M30.7253 31.5H35.1031C34.588 19.316 24.9609 9.52476 12.927 8.91406V13.3492C22.5343 13.9498 30.2103 21.7588 30.7253 31.5Z" fill="white"></path>
    <path d="M23.2764 31.5002H27.7532C27.258 23.4209 20.8993 16.9435 12.9263 16.3428V20.878C18.4331 21.4486 22.7911 25.9138 23.2764 31.5002Z" fill="white"></path>
</svg>

<svg xmlns="http://www.w3.org/2000/svg" viewBox="0 0 48 48"><path d="M4.509 2.673H43.49c2.536 0 4.509 2.13 4.509 4.649v25.667c0 2.615-2.066 4.65-4.509 4.65h-7.796v7.457c0 .485-.47.678-.846.388l-10.144-7.846H4.508C1.973 37.638 0 35.508 0 32.99V7.322c0-2.518 2.067-4.65 4.509-4.65z" fill="#0078D4"/><path d="M15.917 31.35c1.669 0 3.021-1.368 3.021-3.054 0-1.687-1.352-3.054-3.02-3.054-1.669 0-3.021 1.367-3.021 3.054 0 1.686 1.352 3.053 3.02 3.053zM30.725 31.5h4.378C34.588 19.316 24.961 9.525 12.927 8.914v4.435c9.607.6 17.283 8.41 17.798 18.151z" fill="#fff"/><path d="M23.276 31.5h4.477c-.495-8.08-6.854-14.556-14.827-15.157v4.535c5.507.57 9.865 5.036 10.35 10.622z" fill="#fff"/></svg>
